svg/fluentui-system-icons/ic_fluent_people_queue_20_filled.svg

<svg width="20" height="20" viewBox="0 0 20 20" fill="none" xmlns="http://www.w3.org/2000/svg">
<path d="M8.75 5.25C8.75 6.49264 7.74264 7.5 6.5 7.5C5.25736 7.5 4.25 6.49264 4.25 5.25C4.25 4.00736 5.25736 3 6.5 3C7.74264 3 8.75 4.00736 8.75 5.25ZM4 8C3.44772 8 3 8.44772 3 9V13.5C3 15.433 4.567 17 6.5 17C8.433 17 10 15.433 10 13.5V9C10 8.44772 9.55229 8 9 8H4ZM9.74984 5.25C9.74984 5.89992 9.55907 6.50529 9.23046 7.01315C9.64289 7.06051 10.0172 7.23331 10.3141 7.49244C10.3754 7.49745 10.4373 7.5 10.4998 7.5C11.7425 7.5 12.7498 6.49264 12.7498 5.25C12.7498 4.00736 11.7425 3 10.4998 3C10.0101 3 9.55689 3.15647 9.1875 3.42215C9.54238 3.94295 9.74984 4.57225 9.74984 5.25ZM9.49908 16.8548C10.4201 16.0308 10.9998 14.8331 10.9998 13.5V9C10.9998 8.63571 10.9024 8.29417 10.7323 8H12.9998C13.5521 8 13.9998 8.44772 13.9998 9V13.5C13.9998 15.433 12.4328 17 10.4998 17C10.1521 17 9.81616 16.9493 9.49908 16.8548ZM13.7498 5.25C13.7498 5.89992 13.5591 6.50529 13.2305 7.01315C13.6429 7.06051 14.0172 7.23331 14.3141 7.49244C14.3754 7.49745 14.4373 7.5 14.4998 7.5C15.7425 7.5 16.7498 6.49264 16.7498 5.25C16.7498 4.00736 15.7425 3 14.4998 3C14.0101 3 13.5569 3.15647 13.1875 3.42215C13.5424 3.94295 13.7498 4.57225 13.7498 5.25ZM13.4991 16.8548C14.4201 16.0308 14.9998 14.8331 14.9998 13.5V9C14.9998 8.63571 14.9024 8.29417 14.7323 8H16.9998C17.5521 8 17.9998 8.44772 17.9998 9V13.5C17.9998 15.433 16.4328 17 14.4998 17C14.1521 17 13.8162 16.9493 13.4991 16.8548Z" fill="#212121"/>
</svg>

<svg xmlns="http://www.w3.org/2000/svg" width="20" height="20"><path d="M8.75 5.25a2.25 2.25 0 1 1-4.5 0 2.25 2.25 0 0 1 4.5 0ZM4 8a1 1 0 0 0-1 1v4.5a3.5 3.5 0 1 0 7 0V9a1 1 0 0 0-1-1H4Zm5.75-2.75c0 .65-.19 1.255-.52 1.763.413.048.787.22 1.084.48a2.25 2.25 0 1 0-1.127-4.07c.355.52.563 1.15.563 1.827ZM9.5 16.855A4.489 4.489 0 0 0 11 13.5V9c0-.364-.098-.706-.268-1H13a1 1 0 0 1 1 1v4.5a3.5 3.5 0 0 1-4.5 3.355ZM13.75 5.25c0 .65-.19 1.255-.52 1.763.413.048.787.22 1.084.48a2.25 2.25 0 1 0-1.127-4.07c.355.52.563 1.15.563 1.827Zm-.25 11.605A4.489 4.489 0 0 0 15 13.5V9c0-.364-.098-.706-.268-1H17a1 1 0 0 1 1 1v4.5a3.5 3.5 0 0 1-4.5 3.355Z"/></svg>
